images/50415325.svg

<?xml version="1.0" encoding="UTF-8"?>
<svg xmlns="http://www.w3.org/2000/svg" xmlns:xlink="http://www.w3.org/1999/xlink" width="300pt" height="300pt" viewBox="0 0 300 300" version="1.1">
<defs>
<g>
<symbol overflow="visible" id="glyph0-0">
<path style="stroke:none;" d="M 0.453125 1.59375 L 0.453125 -6.34375 L 4.953125 -6.34375 L 4.953125 1.59375 Z M 0.953125 1.09375 L 4.453125 1.09375 L 4.453125 -5.84375 L 0.953125 -5.84375 Z M 0.953125 1.09375 "/>
</symbol>
<symbol overflow="visible" id="glyph0-1">
<path style="stroke:none;" d="M 3.546875 -5.953125 C 2.898438 -5.953125 2.382812 -5.710938 2 -5.234375 C 1.625 -4.753906 1.4375 -4.101562 1.4375 -3.28125 C 1.4375 -2.445312 1.625 -1.789062 2 -1.3125 C 2.382812 -0.832031 2.898438 -0.59375 3.546875 -0.59375 C 4.191406 -0.59375 4.703125 -0.832031 5.078125 -1.3125 C 5.453125 -1.789062 5.640625 -2.445312 5.640625 -3.28125 C 5.640625 -4.101562 5.453125 -4.753906 5.078125 -5.234375 C 4.703125 -5.710938 4.191406 -5.953125 3.546875 -5.953125 Z M 3.546875 -6.6875 C 4.460938 -6.6875 5.195312 -6.375 5.75 -5.75 C 6.300781 -5.132812 6.578125 -4.3125 6.578125 -3.28125 C 6.578125 -2.238281 6.300781 -1.410156 5.75 -0.796875 C 5.195312 -0.179688 4.460938 0.125 3.546875 0.125 C 2.617188 0.125 1.878906 -0.179688 1.328125 -0.796875 C 0.773438 -1.410156 0.5 -2.238281 0.5 -3.28125 C 0.5 -4.3125 0.773438 -5.132812 1.328125 -5.75 C 1.878906 -6.375 2.617188 -6.6875 3.546875 -6.6875 Z M 3.546875 -6.6875 "/>
</symbol>
<symbol overflow="visible" id="glyph0-2">
<path style="stroke:none;" d="M 0.890625 -6.5625 L 2.078125 -6.5625 L 4.984375 -1.078125 L 4.984375 -6.5625 L 5.84375 -6.5625 L 5.84375 0 L 4.65625 0 L 1.75 -5.484375 L 1.75 0 L 0.890625 0 Z M 0.890625 -6.5625 "/>
</symbol>
<symbol overflow="visible" id="glyph0-3">
<path style="stroke:none;" d="M 0.890625 -6.5625 L 1.765625 -6.5625 L 1.765625 -3.875 L 5 -3.875 L 5 -6.5625 L 5.890625 -6.5625 L 5.890625 0 L 5 0 L 5 -3.125 L 1.765625 -3.125 L 1.765625 0 L 0.890625 0 Z M 0.890625 -6.5625 "/>
</symbol>
<symbol overflow="visible" id="glyph1-0">
<path style="stroke:none;" d="M 0.40625 1.421875 L 0.40625 -5.640625 L 4.40625 -5.640625 L 4.40625 1.421875 Z M 0.84375 0.96875 L 3.953125 0.96875 L 3.953125 -5.1875 L 0.84375 -5.1875 Z M 0.84375 0.96875 "/>
</symbol>
<symbol overflow="visible" id="glyph1-1">
<path style="stroke:none;" d="M 3.6875 -5.015625 L 3.6875 -2.84375 L 5.859375 -2.84375 L 5.859375 -2.171875 L 3.6875 -2.171875 L 3.6875 0 L 3.03125 0 L 3.03125 -2.171875 L 0.84375 -2.171875 L 0.84375 -2.84375 L 3.03125 -2.84375 L 3.03125 -5.015625 Z M 3.6875 -5.015625 "/>
</symbol>
</g>
</defs>
<g id="surface8521">
<rect x="0" y="0" width="300" height="300" style="fill:rgb(100%,100%,100%);fill-opacity:1;stroke:none;"/>
<path style="fill:none;stroke-width:1.2;stroke-linecap:butt;stroke-linejoin:miter;stroke:rgb(100%,0%,0%);stroke-opacity:1;stroke-miterlimit:10;" d="M 190.917969 80.867188 L 199.335938 87.167969 "/>
<path style="fill:none;stroke-width:1.2;stroke-linecap:butt;stroke-linejoin:miter;stroke:rgb(0%,0%,0%);stroke-opacity:1;stroke-miterlimit:10;" d="M 199.335938 87.167969 L 207.757812 93.46875 "/>
<path style="fill:none;stroke-width:1.2;stroke-linecap:butt;stroke-linejoin:miter;stroke:rgb(100%,0%,0%);stroke-opacity:1;stroke-miterlimit:10;" d="M 193.878906 76.90625 L 202.300781 83.203125 "/>
<path style="fill:none;stroke-width:1.2;stroke-linecap:butt;stroke-linejoin:miter;stroke:rgb(0%,0%,0%);stroke-opacity:1;stroke-miterlimit:10;" d="M 202.300781 83.203125 L 210.722656 89.503906 "/>
<path style=" stroke:none;fill-rule:nonzero;fill:rgb(100%,100%,100%);fill-opacity:1;" d="M 184.398438 73.386719 L 192.398438 73.386719 L 192.398438 84.386719 L 184.398438 84.386719 Z M 184.398438 73.386719 "/>
<g style="fill:rgb(100%,0%,0%);fill-opacity:1;">
  <use xlink:href="#glyph0-1" x="184.398438" y="82.049805"/>
</g>
<path style="fill:none;stroke-width:1.2;stroke-linecap:butt;stroke-linejoin:miter;stroke:rgb(0%,0%,0%);stroke-opacity:1;stroke-miterlimit:10;" d="M 209.242188 91.484375 L 218.90625 87.339844 "/>
<path style="fill:none;stroke-width:1.2;stroke-linecap:butt;stroke-linejoin:miter;stroke:rgb(0%,0%,100%);stroke-opacity:1;stroke-miterlimit:10;" d="M 218.90625 87.339844 L 228.574219 83.199219 "/>
<path style="fill:none;stroke-width:1.2;stroke-linecap:butt;stroke-linejoin:miter;stroke:rgb(0%,0%,0%);stroke-opacity:1;stroke-miterlimit:10;" d="M 209.242188 91.484375 L 206.753906 112.371094 "/>
<path style="fill:none;stroke-width:1.2;stroke-linecap:butt;stroke-linejoin:miter;stroke:rgb(0%,0%,100%);stroke-opacity:1;stroke-miterlimit:10;" d="M 228.574219 83.199219 L 236.996094 89.496094 "/>
<path style="fill:none;stroke-width:1.2;stroke-linecap:butt;stroke-linejoin:miter;stroke:rgb(0%,0%,0%);stroke-opacity:1;stroke-miterlimit:10;" d="M 236.996094 89.496094 L 245.417969 95.796875 "/>
<path style=" stroke:none;fill-rule:nonzero;fill:rgb(100%,100%,100%);fill-opacity:1;" d="M 221.574219 77.699219 L 235.574219 77.699219 L 235.574219 88.699219 L 221.574219 88.699219 Z M 221.574219 77.699219 "/>
<g style="fill:rgb(0%,0%,100%);fill-opacity:1;">
  <use xlink:href="#glyph0-2" x="221.574219" y="86.362305"/>
  <use xlink:href="#glyph0-3" x="228.551758" y="86.362305"/>
</g>
<path style="fill:none;stroke-width:1.2;stroke-linecap:butt;stroke-linejoin:miter;stroke:rgb(0%,0%,0%);stroke-opacity:1;stroke-miterlimit:10;" d="M 246.394531 98.070312 L 256.058594 93.925781 "/>
<path style="fill:none;stroke-width:1.2;stroke-linecap:butt;stroke-linejoin:miter;stroke:rgb(100%,0%,0%);stroke-opacity:1;stroke-miterlimit:10;" d="M 256.058594 93.925781 L 265.726562 89.785156 "/>
<path style="fill:none;stroke-width:1.2;stroke-linecap:butt;stroke-linejoin:miter;stroke:rgb(0%,0%,0%);stroke-opacity:1;stroke-miterlimit:10;" d="M 244.441406 93.523438 L 254.109375 89.378906 "/>
<path style="fill:none;stroke-width:1.2;stroke-linecap:butt;stroke-linejoin:miter;stroke:rgb(100%,0%,0%);stroke-opacity:1;stroke-miterlimit:10;" d="M 254.109375 89.378906 L 263.773438 85.234375 "/>
<path style="fill:none;stroke-width:1.2;stroke-linecap:butt;stroke-linejoin:miter;stroke:rgb(0%,0%,0%);stroke-opacity:1;stroke-miterlimit:10;" d="M 245.417969 95.796875 L 242.929688 116.683594 "/>
<path style=" stroke:none;fill-rule:nonzero;fill:rgb(100%,100%,100%);fill-opacity:1;" d="M 260.75 82.007812 L 268.75 82.007812 L 268.75 93.007812 L 260.75 93.007812 Z M 260.75 82.007812 "/>
<g style="fill:rgb(100%,0%,0%);fill-opacity:1;">
  <use xlink:href="#glyph0-1" x="260.75" y="90.670898"/>
</g>
<path style="fill:none;stroke-width:1.2;stroke-linecap:butt;stroke-linejoin:miter;stroke:rgb(0%,0%,0%);stroke-opacity:1;stroke-miterlimit:10;" d="M 242.929688 116.683594 L 223.597656 124.96875 "/>
<path style="fill:none;stroke-width:1.2;stroke-linecap:butt;stroke-linejoin:miter;stroke:rgb(0%,0%,0%);stroke-opacity:1;stroke-miterlimit:10;" d="M 242.945312 122.058594 L 227.480469 128.691406 "/>
<path style="fill:none;stroke-width:1.2;stroke-linecap:butt;stroke-linejoin:miter;stroke:rgb(0%,0%,0%);stroke-opacity:1;stroke-miterlimit:10;" d="M 259.773438 129.28125 L 242.929688 116.683594 "/>
<path style="fill:none;stroke-width:1.2;stroke-linecap:butt;stroke-linejoin:miter;stroke:rgb(0%,0%,0%);stroke-opacity:1;stroke-miterlimit:10;" d="M 223.597656 124.96875 L 221.105469 145.855469 "/>
<path style="fill:none;stroke-width:1.2;stroke-linecap:butt;stroke-linejoin:miter;stroke:rgb(0%,0%,0%);stroke-opacity:1;stroke-miterlimit:10;" d="M 223.597656 124.96875 L 206.753906 112.371094 "/>
<path style="fill:none;stroke-width:1.2;stroke-linecap:butt;stroke-linejoin:miter;stroke:rgb(0%,0%,0%);stroke-opacity:1;stroke-miterlimit:10;" d="M 221.105469 145.855469 L 237.949219 158.453125 "/>
<path style="fill:none;stroke-width:1.2;stroke-linecap:butt;stroke-linejoin:miter;stroke:rgb(0%,0%,0%);stroke-opacity:1;stroke-miterlimit:10;" d="M 225.757812 143.152344 L 239.230469 153.230469 "/>
<path style="fill:none;stroke-width:1.2;stroke-linecap:butt;stroke-linejoin:miter;stroke:rgb(0%,0%,0%);stroke-opacity:1;stroke-miterlimit:10;" d="M 237.949219 158.453125 L 257.28125 150.167969 "/>
<path style="fill:none;stroke-width:1.2;stroke-linecap:butt;stroke-linejoin:miter;stroke:rgb(0%,0%,0%);stroke-opacity:1;stroke-miterlimit:10;" d="M 237.949219 158.453125 L 235.460938 179.339844 "/>
<path style="fill:none;stroke-width:1.2;stroke-linecap:butt;stroke-linejoin:miter;stroke:rgb(0%,0%,0%);stroke-opacity:1;stroke-miterlimit:10;" d="M 257.28125 150.167969 L 259.773438 129.28125 "/>
<path style="fill:none;stroke-width:1.2;stroke-linecap:butt;stroke-linejoin:miter;stroke:rgb(0%,0%,0%);stroke-opacity:1;stroke-miterlimit:10;" d="M 252.617188 147.492188 L 254.609375 130.785156 "/>
<path style="fill:none;stroke-width:1.2;stroke-linecap:butt;stroke-linejoin:miter;stroke:rgb(0%,0%,0%);stroke-opacity:1;stroke-miterlimit:10;" d="M 235.460938 179.339844 L 216.128906 187.628906 "/>
<path style="fill:none;stroke-width:1.2;stroke-linecap:butt;stroke-linejoin:miter;stroke:rgb(0%,0%,0%);stroke-opacity:1;stroke-miterlimit:10;" d="M 235.476562 184.71875 L 220.011719 191.347656 "/>
<path style="fill:none;stroke-width:1.2;stroke-linecap:butt;stroke-linejoin:miter;stroke:rgb(0%,0%,0%);stroke-opacity:1;stroke-miterlimit:10;" d="M 252.304688 191.941406 L 235.460938 179.339844 "/>
<path style="fill:none;stroke-width:1.2;stroke-linecap:butt;stroke-linejoin:miter;stroke:rgb(0%,0%,0%);stroke-opacity:1;stroke-miterlimit:10;" d="M 216.128906 187.628906 L 213.640625 208.515625 "/>
<path style="fill:none;stroke-width:1.2;stroke-linecap:butt;stroke-linejoin:miter;stroke:rgb(0%,0%,0%);stroke-opacity:1;stroke-miterlimit:10;" d="M 213.640625 208.515625 L 230.484375 221.113281 "/>
<path style="fill:none;stroke-width:1.2;stroke-linecap:butt;stroke-linejoin:miter;stroke:rgb(0%,0%,0%);stroke-opacity:1;stroke-miterlimit:10;" d="M 218.289062 205.8125 L 231.761719 215.890625 "/>
<path style="fill:none;stroke-width:1.2;stroke-linecap:butt;stroke-linejoin:miter;stroke:rgb(0%,0%,0%);stroke-opacity:1;stroke-miterlimit:10;" d="M 230.484375 221.113281 L 249.816406 212.824219 "/>
<path style="fill:none;stroke-width:1.2;stroke-linecap:butt;stroke-linejoin:miter;stroke:rgb(0%,0%,0%);stroke-opacity:1;stroke-miterlimit:10;" d="M 249.816406 212.824219 L 252.304688 191.941406 "/>
<path style="fill:none;stroke-width:1.2;stroke-linecap:butt;stroke-linejoin:miter;stroke:rgb(0%,0%,0%);stroke-opacity:1;stroke-miterlimit:10;" d="M 245.152344 210.152344 L 247.140625 193.441406 "/>
<path style="fill:none;stroke-width:1.2;stroke-linecap:butt;stroke-linejoin:miter;stroke:rgb(0%,0%,0%);stroke-opacity:1;stroke-miterlimit:10;" d="M 206.753906 112.371094 L 187.421875 120.660156 "/>
<path style="fill:none;stroke-width:1.2;stroke-linecap:butt;stroke-linejoin:miter;stroke:rgb(0%,0%,0%);stroke-opacity:1;stroke-miterlimit:10;" d="M 202.871094 108.652344 L 187.402344 115.28125 "/>
<path style="fill:none;stroke-width:1.2;stroke-linecap:butt;stroke-linejoin:miter;stroke:rgb(0%,0%,0%);stroke-opacity:1;stroke-miterlimit:10;" d="M 187.421875 120.660156 L 179 114.359375 "/>
<path style="fill:none;stroke-width:1.2;stroke-linecap:butt;stroke-linejoin:miter;stroke:rgb(0%,0%,100%);stroke-opacity:1;stroke-miterlimit:10;" d="M 179 114.359375 L 170.578125 108.058594 "/>
<path style="fill:none;stroke-width:1.2;stroke-linecap:butt;stroke-linejoin:miter;stroke:rgb(0%,0%,100%);stroke-opacity:1;stroke-miterlimit:10;" d="M 170.578125 108.058594 L 160.910156 112.203125 "/>
<path style="fill:none;stroke-width:1.2;stroke-linecap:butt;stroke-linejoin:miter;stroke:rgb(0%,0%,0%);stroke-opacity:1;stroke-miterlimit:10;" d="M 160.910156 112.203125 L 151.246094 116.347656 "/>
<path style=" stroke:none;fill-rule:nonzero;fill:rgb(100%,100%,100%);fill-opacity:1;" d="M 163.578125 102.558594 L 177.578125 102.558594 L 177.578125 113.558594 L 163.578125 113.558594 Z M 163.578125 102.558594 "/>
<g style="fill:rgb(0%,0%,100%);fill-opacity:1;">
  <use xlink:href="#glyph0-2" x="163.578125" y="111.22168"/>
  <use xlink:href="#glyph0-3" x="170.555664" y="111.22168"/>
</g>
<path style="fill:none;stroke-width:1.2;stroke-linecap:butt;stroke-linejoin:miter;stroke:rgb(0%,0%,0%);stroke-opacity:1;stroke-miterlimit:10;" d="M 151.246094 116.347656 L 134.402344 103.75 "/>
<path style="fill:none;stroke-width:1.2;stroke-linecap:butt;stroke-linejoin:miter;stroke:rgb(0%,0%,0%);stroke-opacity:1;stroke-miterlimit:10;" d="M 146.597656 119.050781 L 133.121094 108.972656 "/>
<path style="fill:none;stroke-width:1.2;stroke-linecap:butt;stroke-linejoin:miter;stroke:rgb(0%,0%,0%);stroke-opacity:1;stroke-miterlimit:10;" d="M 148.753906 137.234375 L 151.246094 116.347656 "/>
<path style="fill:none;stroke-width:1.2;stroke-linecap:butt;stroke-linejoin:miter;stroke:rgb(0%,0%,0%);stroke-opacity:1;stroke-miterlimit:10;" d="M 134.402344 103.75 L 115.070312 112.035156 "/>
<path style="fill:none;stroke-width:1.2;stroke-linecap:butt;stroke-linejoin:miter;stroke:rgb(0%,0%,0%);stroke-opacity:1;stroke-miterlimit:10;" d="M 115.070312 112.035156 L 112.578125 132.921875 "/>
<path style="fill:none;stroke-width:1.2;stroke-linecap:butt;stroke-linejoin:miter;stroke:rgb(0%,0%,0%);stroke-opacity:1;stroke-miterlimit:10;" d="M 119.734375 114.710938 L 117.742188 131.421875 "/>
<path style="fill:none;stroke-width:1.2;stroke-linecap:butt;stroke-linejoin:miter;stroke:rgb(0%,0%,0%);stroke-opacity:1;stroke-miterlimit:10;" d="M 112.578125 132.921875 L 102.914062 137.066406 "/>
<path style="fill:none;stroke-width:1.2;stroke-linecap:butt;stroke-linejoin:miter;stroke:rgb(0%,0%,100%);stroke-opacity:1;stroke-miterlimit:10;" d="M 102.914062 137.066406 L 93.246094 141.210938 "/>
<path style="fill:none;stroke-width:1.2;stroke-linecap:butt;stroke-linejoin:miter;stroke:rgb(0%,0%,0%);stroke-opacity:1;stroke-miterlimit:10;" d="M 112.578125 132.921875 L 129.421875 145.523438 "/>
<path style="fill:none;stroke-width:1.2;stroke-linecap:butt;stroke-linejoin:miter;stroke:rgb(0%,0%,100%);stroke-opacity:1;stroke-miterlimit:10;" d="M 93.246094 141.210938 L 84.824219 134.910156 "/>
<path style="fill:none;stroke-width:1.2;stroke-linecap:butt;stroke-linejoin:miter;stroke:rgb(0%,0%,0%);stroke-opacity:1;stroke-miterlimit:10;" d="M 84.824219 134.910156 L 76.402344 128.613281 "/>
<path style="fill:none;stroke-width:1.2;stroke-linecap:butt;stroke-linejoin:miter;stroke:rgb(0%,0%,0%);stroke-opacity:1;stroke-miterlimit:10;" d="M 90.757812 162.097656 L 92.003906 151.652344 "/>
<path style="fill:none;stroke-width:1.2;stroke-linecap:butt;stroke-linejoin:miter;stroke:rgb(0%,0%,100%);stroke-opacity:1;stroke-miterlimit:10;" d="M 92.003906 151.652344 L 93.246094 141.210938 "/>
<path style=" stroke:none;fill-rule:nonzero;fill:rgb(100%,100%,100%);fill-opacity:1;" d="M 90.246094 135.710938 L 97.246094 135.710938 L 97.246094 146.710938 L 90.246094 146.710938 Z M 90.246094 135.710938 "/>
<g style="fill:rgb(0%,0%,100%);fill-opacity:1;">
  <use xlink:href="#glyph0-2" x="90.246094" y="144.374023"/>
</g>
<path style="fill:none;stroke-width:1.2;stroke-linecap:butt;stroke-linejoin:miter;stroke:rgb(0%,0%,0%);stroke-opacity:1;stroke-miterlimit:10;" d="M 76.402344 128.613281 L 57.070312 136.898438 "/>
<path style="fill:none;stroke-width:1.2;stroke-linecap:butt;stroke-linejoin:miter;stroke:rgb(0%,0%,0%);stroke-opacity:1;stroke-miterlimit:10;" d="M 57.070312 136.898438 L 55.828125 147.34375 "/>
<path style="fill:none;stroke-width:1.2;stroke-linecap:butt;stroke-linejoin:miter;stroke:rgb(0%,0%,100%);stroke-opacity:1;stroke-miterlimit:10;" d="M 55.828125 147.34375 L 54.582031 157.785156 "/>
<path style="fill:none;stroke-width:1.2;stroke-linecap:butt;stroke-linejoin:miter;stroke:rgb(0%,0%,100%);stroke-opacity:1;stroke-miterlimit:10;" d="M 54.582031 157.785156 L 63.003906 164.085938 "/>
<path style="fill:none;stroke-width:1.2;stroke-linecap:butt;stroke-linejoin:miter;stroke:rgb(0%,0%,0%);stroke-opacity:1;stroke-miterlimit:10;" d="M 63.003906 164.085938 L 71.425781 170.382812 "/>
<path style="fill:none;stroke-width:1.2;stroke-linecap:butt;stroke-linejoin:miter;stroke:rgb(0%,0%,100%);stroke-opacity:1;stroke-miterlimit:10;" d="M 54.582031 157.785156 L 44.917969 161.929688 "/>
<path style="fill:none;stroke-width:1.2;stroke-linecap:butt;stroke-linejoin:miter;stroke:rgb(0%,0%,0%);stroke-opacity:1;stroke-miterlimit:10;" d="M 44.917969 161.929688 L 35.25 166.074219 "/>
<path style=" stroke:none;fill-rule:nonzero;fill:rgb(100%,100%,100%);fill-opacity:1;" d="M 44.582031 150.285156 L 65.582031 150.285156 L 65.582031 165.285156 L 44.582031 165.285156 Z M 44.582031 150.285156 "/>
<g style="fill:rgb(0%,0%,100%);fill-opacity:1;">
  <use xlink:href="#glyph0-2" x="44.582031" y="162.386719"/>
  <use xlink:href="#glyph0-3" x="51.55957" y="162.386719"/>
</g>
<g style="fill:rgb(0%,0%,100%);fill-opacity:1;">
  <use xlink:href="#glyph1-1" x="58.574219" y="157.503906"/>
</g>
<path style="fill:none;stroke-width:1.2;stroke-linecap:butt;stroke-linejoin:miter;stroke:rgb(0%,0%,0%);stroke-opacity:1;stroke-miterlimit:10;" d="M 71.425781 170.382812 L 90.757812 162.097656 "/>
<path style="fill:none;stroke-width:1.2;stroke-linecap:butt;stroke-linejoin:miter;stroke:rgb(0%,0%,0%);stroke-opacity:1;stroke-miterlimit:10;" d="M 129.421875 145.523438 L 148.753906 137.234375 "/>
<path style="fill:none;stroke-width:1.2;stroke-linecap:butt;stroke-linejoin:miter;stroke:rgb(0%,0%,0%);stroke-opacity:1;stroke-miterlimit:10;" d="M 129.40625 140.144531 L 144.871094 133.515625 "/>
</g>
</svg>

<svg xmlns="http://www.w3.org/2000/svg" xmlns:xlink="http://www.w3.org/1999/xlink" width="300pt" height="300pt" viewBox="0 0 300 300"><defs><symbol overflow="visible"><path d="M.453 1.594v-7.938h4.5v7.938zm.5-.5h3.5v-6.938h-3.5zm0 0"/></symbol><symbol overflow="visible" id="a"><path d="M3.547-5.953c-.65 0-1.164.242-1.547.72-.375.48-.563 1.13-.563 1.952 0 .835.188 1.49.563 1.967.383.48.898.72 1.547.72.644 0 1.156-.24 1.53-.72.376-.476.564-1.132.564-1.968 0-.822-.187-1.474-.562-1.954-.375-.477-.887-.72-1.53-.72zm0-.734c.914 0 1.648.312 2.203.937.55.617.828 1.438.828 2.47 0 1.042-.277 1.87-.828 2.483-.555.617-1.29.922-2.203.922-.93 0-1.668-.305-2.22-.922C.774-1.41.5-2.237.5-3.28c0-1.033.273-1.853.828-2.47.55-.625 1.29-.938 2.22-.938zm0 0"/></symbol><symbol overflow="visible" id="b"><path d="M.89-6.563H2.08l2.906 5.485v-5.484h.86V0H4.656L1.75-5.484V0H.89zm0 0"/></symbol><symbol overflow="visible" id="c"><path d="M.89-6.563h.876v2.688H5v-2.688h.89V0H5v-3.125H1.766V0H.89zm0 0"/></symbol><symbol overflow="visible"><path d="M.406 1.422V-5.64h4V1.42zM.844.97h3.11v-6.157H.843zm0 0"/></symbol><symbol overflow="visible" id="d"><path d="M3.688-5.016v2.172h2.17v.672H3.69V0H3.03v-2.172H.845v-.672H3.03v-2.172zm0 0"/></symbol></defs><g><path fill="#fff" d="M0 0h300v300H0z"/><path d="M190.918 80.867l8.418 6.3" stroke-width="1.2" stroke="#f00" stroke-miterlimit="10" fill="none"/><path d="M199.336 87.168l8.422 6.3" stroke-width="1.2" stroke="#000" stroke-miterlimit="10" fill="none"/><path d="M193.88 76.906l8.42 6.297" stroke-width="1.2" stroke="#f00" stroke-miterlimit="10" fill="none"/><path d="M202.3 83.203l8.423 6.3" stroke-width="1.2" stroke="#000" stroke-miterlimit="10" fill="none"/><path d="M184.398 73.387h8v11h-8zm0 0" fill="#fff"/><use xlink:href="#a" x="184.398" y="82.05" fill="#f00"/><path d="M209.242 91.484l9.664-4.144" stroke-width="1.2" stroke="#000" stroke-miterlimit="10" fill="none"/><path d="M218.906 87.34l9.668-4.14" stroke-width="1.2" stroke="#00f" stroke-miterlimit="10" fill="none"/><path d="M209.242 91.484l-2.488 20.887" stroke-width="1.2" stroke="#000" stroke-miterlimit="10" fill="none"/><path d="M228.574 83.2l8.422 6.296" stroke-width="1.2" stroke="#00f" stroke-miterlimit="10" fill="none"/><path d="M236.996 89.496l8.422 6.3" stroke-width="1.2" stroke="#000" stroke-miterlimit="10" fill="none"/><path d="M221.574 77.7h14v11h-14zm0 0" fill="#fff"/><g fill="#00f"><use xlink:href="#b" x="221.574" y="86.362"/><use xlink:href="#c" x="228.552" y="86.362"/></g><path d="M246.395 98.07l9.664-4.144" stroke-width="1.2" stroke="#000" stroke-miterlimit="10" fill="none"/><path d="M256.06 93.926l9.667-4.14" stroke-width="1.2" stroke="#f00" stroke-miterlimit="10" fill="none"/><path d="M244.44 93.523l9.67-4.144" stroke-width="1.2" stroke="#000" stroke-miterlimit="10" fill="none"/><path d="M254.11 89.38l9.663-4.146" stroke-width="1.2" stroke="#f00" stroke-miterlimit="10" fill="none"/><path d="M245.418 95.797l-2.488 20.887" stroke-width="1.2" stroke="#000" stroke-miterlimit="10" fill="none"/><path d="M260.75 82.008h8v11h-8zm0 0" fill="#fff"/><use xlink:href="#a" x="260.75" y="90.671" fill="#f00"/><path d="M242.93 116.684l-19.332 8.285M242.945 122.06l-15.465 6.63M259.773 129.28l-16.843-12.596M223.598 124.97l-2.493 20.885M223.598 124.97l-16.844-12.6M221.105 145.855l16.844 12.598M225.758 143.152l13.472 10.078M237.95 158.453l19.33-8.285M237.95 158.453l-2.49 20.887M257.28 150.168l2.493-20.887M252.617 147.492l1.992-16.707M235.46 179.34l-19.33 8.29M235.477 184.72l-15.465 6.628M252.305 191.94l-16.844-12.6M216.13 187.63l-2.49 20.886M213.64 208.516l16.844 12.597M218.29 205.813l13.472 10.078M230.484 221.113l19.332-8.29M249.816 212.824l2.49-20.883M245.152 210.152l1.99-16.71M206.754 112.37l-19.332 8.29M202.87 108.652l-15.468 6.63M187.422 120.66l-8.422-6.3" stroke-width="1.2" stroke="#000" stroke-miterlimit="10" fill="none"/><path d="M179 114.36l-8.422-6.3M170.578 108.06l-9.668 4.143" stroke-width="1.2" stroke="#00f" stroke-miterlimit="10" fill="none"/><path d="M160.91 112.203l-9.664 4.145" stroke-width="1.2" stroke="#000" stroke-miterlimit="10" fill="none"/><path d="M163.578 102.56h14v11h-14zm0 0" fill="#fff"/><g fill="#00f"><use xlink:href="#b" x="163.578" y="111.222"/><use xlink:href="#c" x="170.556" y="111.222"/></g><path d="M151.246 116.348l-16.844-12.598M146.598 119.05l-13.477-10.077M148.754 137.234l2.492-20.886M134.402 103.75l-19.332 8.285M115.07 112.035l-2.492 20.887M119.734 114.71l-1.992 16.712M112.578 132.922l-9.664 4.144" stroke-width="1.2" stroke="#000" stroke-miterlimit="10" fill="none"/><path d="M102.914 137.066l-9.668 4.145" stroke-width="1.2" stroke="#00f" stroke-miterlimit="10" fill="none"/><path d="M112.578 132.922l16.844 12.6" stroke-width="1.2" stroke="#000" stroke-miterlimit="10" fill="none"/><path d="M93.246 141.21l-8.422-6.3" stroke-width="1.2" stroke="#00f" stroke-miterlimit="10" fill="none"/><path d="M84.824 134.91l-8.422-6.297M90.758 162.098l1.246-10.446" stroke-width="1.2" stroke="#000" stroke-miterlimit="10" fill="none"/><path d="M92.004 151.652l1.242-10.44" stroke-width="1.2" stroke="#00f" stroke-miterlimit="10" fill="none"/><path d="M90.246 135.71h7v11h-7zm0 0" fill="#fff"/><use xlink:href="#b" x="90.246" y="144.374" fill="#00f"/><path d="M76.402 128.613l-19.332 8.285M57.07 136.898l-1.242 10.446" stroke-width="1.2" stroke="#000" stroke-miterlimit="10" fill="none"/><path d="M55.828 147.344l-1.246 10.44M54.582 157.785l8.422 6.3" stroke-width="1.2" stroke="#00f" stroke-miterlimit="10" fill="none"/><path d="M63.004 164.086l8.422 6.297" stroke-width="1.2" stroke="#000" stroke-miterlimit="10" fill="none"/><path d="M54.582 157.785l-9.664 4.145" stroke-width="1.2" stroke="#00f" stroke-miterlimit="10" fill="none"/><path d="M44.918 161.93l-9.668 4.144" stroke-width="1.2" stroke="#000" stroke-miterlimit="10" fill="none"/><path d="M44.582 150.285h21v15h-21zm0 0" fill="#fff"/><g fill="#00f"><use xlink:href="#b" x="44.582" y="162.387"/><use xlink:href="#c" x="51.56" y="162.387"/></g><use xlink:href="#d" x="58.574" y="157.504" fill="#00f"/><path d="M71.426 170.383l19.332-8.285M129.422 145.523l19.332-8.29M129.406 140.145l15.465-6.63" stroke-width="1.2" stroke="#000" stroke-miterlimit="10" fill="none"/></g></svg>
